assets/svg/podchaser.svg

<svg xmlns="http://www.w3.org/2000/svg" id="Layer_11" x="0" y="0" version="1.1" viewBox="0 0 100 100" xml:space="preserve"><path d="M49.6 15.8c-18.8 0-34.1 15.2-34.1 34.1C15.5 68.7 30.7 84 49.6 84s34.1-15.2 34.1-34.1c0-18.9-15.3-34.1-34.1-34.1zm0 63.3c-3.3 0-6.5-.6-9.5-1.6v-7.4c2.9 1.4 6.1 2.2 9.5 2.2 12 0 21.8-9.8 21.8-21.8s-9.8-21.8-21.8-21.8-21.8 9.8-21.8 21.8v18.9c-4.7-5.2-7.5-12-7.5-19.6 0-16.2 13.1-29.3 29.3-29.3s29.3 13.1 29.3 29.3c0 16.2-13.1 29.3-29.3 29.3z"/></svg>

<?xml version="1.0" encoding="UTF-8" standalone="no"?>
<!DOCTYPE svg PUBLIC "-//W3C//DTD SVG 1.1//EN" "http://www.w3.org/Graphics/SVG/1.1/DTD/svg11.dtd">
<svg width="100%" height="100%" viewBox="0 0 24 24" version="1.1" xmlns="http://www.w3.org/2000/svg" xmlns:xlink="http://www.w3.org/1999/xlink" xml:space="preserve" xmlns:serif="http://www.serif.com/" style="fill-rule:evenodd;clip-rule:evenodd;stroke-linejoin:round;stroke-miterlimit:2;">
    <g transform="matrix(0.319058,0,0,0.321733,-3.68822,-3.83814)">
        <path d="M49.6,15.8C30.8,15.8 15.5,31 15.5,49.9C15.5,68.7 30.7,84 49.6,84C68.5,84 83.7,68.8 83.7,49.9C83.7,31 68.4,15.8 49.6,15.8ZM49.6,79.1C46.3,79.1 43.1,78.5 40.1,77.5L40.1,70.1C43,71.5 46.2,72.3 49.6,72.3C61.6,72.3 71.4,62.5 71.4,50.5C71.4,38.5 61.6,28.7 49.6,28.7C37.6,28.7 27.8,38.5 27.8,50.5L27.8,69.4C23.1,64.2 20.3,57.4 20.3,49.8C20.3,33.6 33.4,20.5 49.6,20.5C65.8,20.5 78.9,33.6 78.9,49.8C78.9,66 65.8,79.1 49.6,79.1Z" style="fill-rule:nonzero;"/>
    </g>
</svg>
